X:1
T:La donna è mobile From the opera “rigoletto”cé. Music by giuseppe verdi
C:Verdi
%%score { 1 | ( 2 3 ) }
L:1/4
Q:1/4=100
M:3/4
I:linebreak $
K:Emin
V:1 treble 
L:1/8
V:2 bass 
V:3 bass 
V:1
"^Moderato""G" !4!!1![DB]2 [DB]2 [DB]2 |"D" ([Fd]>c !3!!2![FA]4) | [FA]2 [FA]2 [FA]2 | %3
"G" ([Gc]>B G4) |$ !4!B2 A2 G2 |"D" (G>F) F4 | !4!A2"Am7" G2 E2 |"C" (E>D)"G" D4 |$ %8
"G" [DB]2 [DB]2 [DB]2 |"D" ([Fd]>c [FA]4) | [FA]2 [FA]2 [FA]2 |"G" ([Gc]>B G4) |$ B2 A2 G2 | %13
"D" (G>F) F4 | A2"Am7" G2 E2 |"C" (E>D)"G" D4 |$"^Lb""A" (!2!A>B A2) A2 |"D" d2 A4 | %18
"B" (!2!B>c B2) B2 |"Em" e2 B4 |$"D" (!4!d>e d2) d2 |"Gdim" e4"G" d2 |"Am" (3!4!cdc"G" B z"D" A z | %23
"G" G4 D>d |$"^Lb""D" d4 D>d |"G" d4 D>d |"Am" (3!4!cdc"G" B z"D" A z |"G" G4 D>d |$ %28
"D7" (3cAd c z D>d |"G" (3BGd B z D>d |"D7" (3cAd (3cAd (3cAd |$"^ld""G" (d4 !2!^d2) | %32
"Am" (f>e) (=d>!1!c)"D7" (!3!B>A) |1"G" G z !>!G2 z2 :|2"E" G z !>![Bdg]2 z2 |] %35
V:2
 !5!G,, !2!D, !1!G, | !4!D, !1!A, A, | !5!D, !2!A, !1!D | G, [B,D] [B,D] |$ [G,D] C B, | %5
 !2!!5![D,A,] !1!D D | [D,F,] A, C | C B,2 |$ G,, D, G, | D, A, A, | D, A, D | G, [B,D] [B,D] |$ %12
 [G,D] C B, | [D,A,] D D | [D,F,] A, C | C B,2 |$ z !3!E, A, | F,2 A, | z F, B, | G,2 B, |$ %20
 z A, D | [G,B,]2 B, | A, G,/ z/ [D,F,]/ z/ | G,/ z/ G,,/ z/ z |$ [D,F,A,] [D,F,A,] z | %25
 [D,G,B,] [D,G,B,] z | A, G,/ z/ [D,F,]/ z/ | G,/ z/ G,,/ z/ z |$ [F,A,D]/ z/ [F,A,D]/ z/ z | %29
 [G,B,D]/ z/ [G,B,D]/ z/ z | [F,A,]/ z/ [D,F,A,]/ z/ [F,A,]/ z/ |$ [G,B,] G, z | %32
 [C,A,] z [D,F,C] |1 [G,B,]/ z/ !>![G,B,] z :|2 [G,B,]/ z/ !>![G,,D,] z |] %35
V:3
 x3 | x3 | x3 | x3 |$ x3 | x3 | x3 | G,2 D, |$ x3 | x3 | x3 | x3 |$ x3 | x3 | x3 | G,2 D, |$ %16
 !5!^C,3 | D,3 | ^D,3 | E,3 |$ F,3 | x3 | x3 | x3 |$ x3 | x3 | x3 | x3 |$ x3 | x3 | x3 |$ x3 | %32
 x3 |1 x3 :|2 x3 |] %35

